X: 1
T: the Cockle Gatherer
T: Trusaidh mi na Colleagain
C:
R: reel
S: page in Concord Slow Scottish Session collection
N: labelled SRSNH 9/91 4.3
Z: 2015 John Chambers <jc:trillian.mit.edu>
M: C|
L: 1/8
K: A
   z "A"|\
"A"A2AA B2c2 | "A"A2AA efa2 |\
"A"A2AA B2c2 | "E7"efed "A"cAA :|
|: z "B"|\
"D"a2aa g2f2 | "D"d2dd def2 |\
"A"a2aa g2f2 | "E7"efed "A"cAA :|
